X: 208
T: Lass 'O'Patie's Mill
M: 2/2
L: 1/8
Q:1/4=210
K:D % 2 sharps
% (c) SSF July 2006
A2|"D"GF ED F2 A2|"D"d3e f2 A2|"G"Bc dc BA "G"GF|"D"F4 "A"E2 AG|\
"D"GF ED F2 A2|"D"d3e f2 A2|"G"Bc dB "A"cd ef|"D"d6 :||\
ef|"Em"gf ed dc BA|"D"d3 e f2 "D"A2|"G"Bc dc BA GF|"D"F4 "A"E2 AG|\
"D"GF ED F2 A2|"D"d3 e f2 A2|"G"Bc dB "A"cd ef|"D"d6 :||\

%  <A name="D1X209"></A>
